docs/images/groupon.svg

<svg height="133" viewBox="0 0 301 133" width="301" xmlns="http://www.w3.org/2000/svg" xmlns:xlink="http://www.w3.org/1999/xlink"><linearGradient id="a" x1="50%" x2="54.579782%" y1="0%" y2="67.172469%"><stop offset="0" stop-color="#9dc360"/><stop offset="1" stop-color="#82b548"/></linearGradient><g fill="none" fill-rule="evenodd"><path d="m.443.375 300 .09v101.766l-277.929 29.732z" fill="#ededed" stroke="#636466"/><path d="m292.165 94.788-262.777 28.112-19.16-114.241 281.937.084z" fill="url(#a)"/><g fill="#fff"><path d="m14.467 80.358-13.495-79.553 106.868.116-107.397-.546z" opacity=".3"/><g><path d="m19.65 39.638c-5.577 0-10.329-2.034-14.123-6.046-3.585-3.798-5.403-8.551-5.403-14.127 0-5.269 1.998-10.023 5.776-13.749 3.782-3.727 8.444-5.617 13.857-5.617 8.196 0 15.166 4.953 18.233 12.94h-10.479c-2.358-2.521-4.885-3.713-7.861-3.713-5.59 0-10.139 4.572-10.139 10.191 0 5.905 4.643 10.894 10.139 10.894 3.667 0 6.847-1.907 8.724-5.231l.105-.187h-11.019v-7.396h21.563c.052.837.1 1.653.1 2.406 0 4.275-1.067 7.916-3.262 11.129-3.659 5.326-9.719 8.506-16.211 8.506z" transform="translate(30 35)"/><path d="m16.381 37.884-7.519-12.662v12.662h-9.118v-38.032h12.582c4.233 0 7.165.34 9.618 2.079 3.396 2.369 5.117 5.939 5.117 10.612 0 6.156-3.206 10.719-8.576 12.208l-.172.048 9.331 13.086h-11.263zm-7.519-20.372h1.955c4.984 0 7.017-1.377 7.017-4.754 0-3.178-1.931-4.595-6.262-4.595h-2.709v9.349z" transform="translate(72 36)"/><path d="m19.345 39.583c-5.648 0-10.417-2.016-14.176-5.991-3.586-3.799-5.404-8.552-5.404-14.127 0-5.27 1.998-10.023 5.778-13.749 3.745-3.691 8.407-5.563 13.857-5.563 5.085 0 9.911 1.995 13.586 5.617 3.796 3.743 5.887 8.664 5.887 13.856 0 5.458-1.906 10.306-5.511 14.02-3.669 3.829-8.647 5.937-14.017 5.937zm.107-30.204c-5.776 0-10.3 4.478-10.3 10.193 0 5.846 4.668 10.784 10.193 10.784 5.75 0 10.086-4.636 10.086-10.784 0-5.62-4.477-10.193-9.979-10.193z" transform="translate(101 35)"/><path d="m13.312 38.475c-8.748 0-13.766-5.39-13.766-14.788v-23.835h9.171v23.458c0 4.529 1.477 6.639 4.647 6.639 3.345 0 4.971-2.171 4.971-6.639v-23.458h9.118v23.835c0 9.122-5.419 14.788-14.141 14.788z" transform="translate(143 36)"/><path d="m.405 37.884v-38.032h12.582c4.233 0 7.165.34 9.618 2.079 3.396 2.37 5.116 5.958 5.116 10.666 0 4.833-2.195 8.934-6.023 11.252-2.367 1.419-5.336 1.704-9.358 1.704h-2.816v12.331zm9.226-20.372h1.848c4.983 0 7.017-1.377 7.017-4.754 0-3.178-1.932-4.595-6.263-4.595h-2.602z" transform="translate(173 36)"/><path d="m19.79 39.583c-5.648 0-10.418-2.016-14.176-5.991-3.586-3.799-5.404-8.552-5.404-14.127 0-5.269 1.998-10.023 5.777-13.749 3.746-3.691 8.408-5.563 13.857-5.563 5.085 0 9.91 1.995 13.586 5.617 3.796 3.743 5.887 8.664 5.887 13.856 0 5.458-1.905 10.306-5.511 14.02-3.668 3.829-8.646 5.937-14.016 5.937zm.107-30.204c-5.775 0-10.3 4.478-10.3 10.193 0 5.846 4.668 10.784 10.192 10.784 5.75 0 10.086-4.636 10.086-10.784.001-5.62-4.476-10.193-9.978-10.193z" transform="translate(202 35)"/><path d="m23.979 37.884-14.458-21.608v21.608h-9.119v-38.032h8.26l14.245 21.558v-21.558h9.118v38.032z" transform="translate(243 36)"/></g></g></g></svg>

<?xml version="1.0" encoding="UTF-8" standalone="no"?>
<svg width="301px" height="133px" viewBox="0 0 301 133" version="1.1" xmlns="http://www.w3.org/2000/svg" xmlns:xlink="http://www.w3.org/1999/xlink" xmlns:sketch="http://www.bohemiancoding.com/sketch/ns">
    <title>groupon</title>
    <description>Created with Sketch (http://www.bohemiancoding.com/sketch)</description>
    <defs>
        <linearGradient x1="50%" y1="0%" x2="54.579782%" y2="67.1724687%" id="linearGradient-1">
            <stop stop-color="#9DC360" offset="0%"></stop>
            <stop stop-color="#82B548" offset="100%"></stop>
        </linearGradient>
    </defs>
    <g id="Page-1" stroke="none" stroke-width="1" fill="none" fill-rule="evenodd" sketch:type="MSPage">
        <path d="M0.443,0.375 L300.443,0.465 L300.443,102.231 L22.514,131.963 L0.443,0.375 Z" id="Shape" stroke="#636466" fill="#EDEDED" sketch:type="MSShapeGroup"></path>
        <path d="M292.165,94.788 L29.388,122.9 L10.228,8.659 L292.165,8.743 L292.165,94.788 Z" id="Shape" fill="url(#linearGradient-1)" sketch:type="MSShapeGroup"></path>
        <path d="M14.467,80.358 L0.972,0.805 L107.84,0.921 L0.443,0.375 L14.467,80.358 Z" id="Shape" opacity="0.3" fill="#FFFFFF" sketch:type="MSShapeGroup"></path>
        <g id="Group" sketch:type="MSLayerGroup" transform="translate(30.000000, 35.000000)" fill="#FFFFFF">
            <g id="Shape" sketch:type="MSShapeGroup">
                <path d="M19.65,39.638 C14.073,39.638 9.321,37.604 5.527,33.592 C1.942,29.794 0.124,25.041 0.124,19.465 C0.124,14.196 2.122,9.442 5.9,5.716 C9.682,1.989 14.344,0.099 19.757,0.099 C27.953,0.099 34.923,5.052 37.99,13.039 L27.511,13.039 C25.153,10.518 22.626,9.326 19.65,9.326 C14.06,9.326 9.511,13.898 9.511,19.517 C9.511,25.422 14.154,30.411 19.65,30.411 C23.317,30.411 26.497,28.504 28.374,25.18 L28.479,24.993 L17.46,24.993 L17.46,17.597 L39.023,17.597 C39.075,18.434 39.123,19.25 39.123,20.003 C39.123,24.278 38.056,27.919 35.861,31.132 C32.202,36.458 26.142,39.638 19.65,39.638 L19.65,39.638 Z"></path>
            </g>
            <g transform="translate(42.000000, 1.000000)" id="Shape" sketch:type="MSShapeGroup">
                <path d="M16.381,37.884 L8.862,25.222 L8.862,37.884 L-0.256,37.884 L-0.256,-0.148 L12.326,-0.148 C16.559,-0.148 19.491,0.192 21.944,1.931 C25.34,4.3 27.061,7.87 27.061,12.543 C27.061,18.699 23.855,23.262 18.485,24.751 L18.313,24.799 L27.644,37.885 L16.381,37.885 L16.381,37.884 Z M8.862,17.512 L10.817,17.512 C15.801,17.512 17.834,16.135 17.834,12.758 C17.834,9.58 15.903,8.163 11.572,8.163 L8.863,8.163 L8.863,17.512 L8.862,17.512 Z"></path>
            </g>
            <g transform="translate(71.000000, 0.000000)" id="Shape" sketch:type="MSShapeGroup">
                <path d="M19.345,39.583 C13.697,39.583 8.928,37.567 5.169,33.592 C1.583,29.793 -0.235,25.04 -0.235,19.465 C-0.235,14.195 1.763,9.442 5.543,5.716 C9.288,2.025 13.95,0.153 19.4,0.153 C24.485,0.153 29.311,2.148 32.986,5.77 C36.782,9.513 38.873,14.434 38.873,19.626 C38.873,25.084 36.967,29.932 33.362,33.646 C29.693,37.475 24.715,39.583 19.345,39.583 L19.345,39.583 Z M19.452,9.379 C13.676,9.379 9.152,13.857 9.152,19.572 C9.152,25.418 13.82,30.356 19.345,30.356 C25.095,30.356 29.431,25.72 29.431,19.572 C29.431,13.952 24.954,9.379 19.452,9.379 L19.452,9.379 Z"></path>
            </g>
            <g transform="translate(113.000000, 1.000000)" id="Shape" sketch:type="MSShapeGroup">
                <path d="M13.312,38.475 C4.564,38.475 -0.454,33.085 -0.454,23.687 L-0.454,-0.148 L8.717,-0.148 L8.717,23.31 C8.717,27.839 10.194,29.949 13.364,29.949 C16.709,29.949 18.335,27.778 18.335,23.31 L18.335,-0.148 L27.453,-0.148 L27.453,23.687 C27.453,32.809 22.034,38.475 13.312,38.475 L13.312,38.475 Z"></path>
            </g>
            <g transform="translate(143.000000, 1.000000)" id="Shape" sketch:type="MSShapeGroup">
                <path d="M0.405,37.884 L0.405,-0.148 L12.987,-0.148 C17.22,-0.148 20.152,0.192 22.605,1.931 C26.001,4.301 27.721,7.889 27.721,12.597 C27.721,17.43 25.526,21.531 21.698,23.849 C19.331,25.268 16.362,25.553 12.34,25.553 L9.524,25.553 L9.524,37.884 L0.405,37.884 L0.405,37.884 Z M9.631,17.512 L11.479,17.512 C16.462,17.512 18.496,16.135 18.496,12.758 C18.496,9.58 16.564,8.163 12.233,8.163 L9.631,8.163 L9.631,17.512 L9.631,17.512 Z"></path>
            </g>
            <g transform="translate(172.000000, 0.000000)" id="Shape" sketch:type="MSShapeGroup">
                <path d="M19.79,39.583 C14.142,39.583 9.372,37.567 5.614,33.592 C2.028,29.793 0.21,25.04 0.21,19.465 C0.21,14.196 2.208,9.442 5.987,5.716 C9.733,2.025 14.395,0.153 19.844,0.153 C24.929,0.153 29.754,2.148 33.43,5.77 C37.226,9.513 39.317,14.434 39.317,19.626 C39.317,25.084 37.412,29.932 33.806,33.646 C30.138,37.475 25.16,39.583 19.79,39.583 L19.79,39.583 Z M19.897,9.379 C14.122,9.379 9.597,13.857 9.597,19.572 C9.597,25.418 14.265,30.356 19.789,30.356 C25.539,30.356 29.875,25.72 29.875,19.572 C29.876,13.952 25.399,9.379 19.897,9.379 L19.897,9.379 Z"></path>
            </g>
            <g transform="translate(213.000000, 1.000000)" id="Shape" sketch:type="MSShapeGroup">
                <path d="M23.979,37.884 L9.521,16.276 L9.521,37.884 L0.402,37.884 L0.402,-0.148 L8.662,-0.148 L22.907,21.41 L22.907,-0.148 L32.025,-0.148 L32.025,37.884 L23.979,37.884 Z"></path>
            </g>
        </g>
    </g>
</svg>
